X:121
M:C
L:1/8
K:G
|: gggg ffff | eeee dd d2 | gggg ffff | eeee d2d2 |
ec e2 dB d2 | cBAG Bc d2 | BcdB cABG | EAGF G[DG][B,d][G,g] :|

